optimized/24/outline/number-fill.svg

<svg viewBox="0 0 24 24" fill="none" xmlns="http://www.w3.org/2000/svg">
  <g clip-path="url(#clip0_2208_12345)">
    <path d="M6.25 19.5C6.66421 19.5 7 19.8358 7 20.25C7 20.6642 6.66421 21 6.25 21H4.75C3.23122 21 2 19.7688 2 18.25V5.75C2 4.23122 3.23122 3 4.75 3H6.25C6.66421 3 7 3.33579 7 3.75C7 4.16421 6.66421 4.5 6.25 4.5L4.75 4.5C4.05964 4.5 3.5 5.05965 3.5 5.75L3.5 18.25C3.5 18.9404 4.05965 19.5 4.75 19.5H6.25Z" fill="#333333"/>
    <path d="M17.75 19.5C17.3358 19.5 17 19.8358 17 20.25C17 20.6642 17.3358 21 17.75 21H19.25C20.7688 21 22 19.7688 22 18.25L22 5.75C22 4.23122 20.7688 3 19.25 3H17.75C17.3358 3 17 3.33579 17 3.75C17 4.16421 17.3358 4.5 17.75 4.5L19.25 4.5C19.9404 4.5 20.5 5.05965 20.5 5.75L20.5 18.25C20.5 18.9404 19.9404 19.5 19.25 19.5H17.75Z" fill="#333333"/>
    <path d="M12.287 5.30709C12.5673 5.42318 12.75 5.69665 12.75 6V15.25H14.5C14.9142 15.25 15.25 15.5858 15.25 16C15.25 16.4142 14.9142 16.75 14.5 16.75H9.5C9.08579 16.75 8.75 16.4142 8.75 16C8.75 15.5858 9.08579 15.25 9.5 15.25H11.25V7.81066L10.0303 9.03033C9.73744 9.32322 9.26256 9.32322 8.96967 9.03033C8.67678 8.73744 8.67678 8.26256 8.96967 7.96967L11.4697 5.46967C11.6842 5.25517 12.0068 5.191 12.287 5.30709Z" fill="#333333"/>
    <path d="M8.25 18.25C7.83579 18.25 7.5 18.5858 7.5 19C7.5 19.4142 7.83579 19.75 8.25 19.75H15.75C16.1642 19.75 16.5 19.4142 16.5 19C16.5 18.5858 16.1642 18.25 15.75 18.25H8.25Z" fill="#333333"/>
  </g>
  <defs>
    <clipPath id="clip0_2208_12345">
      <rect width="24" height="24" fill="white"/>
    </clipPath>
  </defs>
</svg>

<svg xmlns="http://www.w3.org/2000/svg" width="24" height="24" fill="none">
  <g fill="#333" clip-path="url(#a)">
    <path d="M6.25 19.5a.75.75 0 0 1 0 1.5h-1.5A2.75 2.75 0 0 1 2 18.25V5.75A2.75 2.75 0 0 1 4.75 3h1.5a.75.75 0 0 1 0 1.5h-1.5c-.69 0-1.25.56-1.25 1.25v12.5c0 .69.56 1.25 1.25 1.25h1.5ZM17.75 19.5a.75.75 0 0 0 0 1.5h1.5A2.75 2.75 0 0 0 22 18.25V5.75A2.75 2.75 0 0 0 19.25 3h-1.5a.75.75 0 0 0 0 1.5h1.5c.69 0 1.25.56 1.25 1.25v12.5c0 .69-.56 1.25-1.25 1.25h-1.5ZM12.287 5.307A.75.75 0 0 1 12.75 6v9.25h1.75a.75.75 0 0 1 0 1.5h-5a.75.75 0 0 1 0-1.5h1.75V7.81l-1.22 1.22a.75.75 0 1 1-1.06-1.06l2.5-2.5a.75.75 0 0 1 .817-.163ZM8.25 18.25a.75.75 0 0 0 0 1.5h7.5a.75.75 0 0 0 0-1.5h-7.5Z"/>
  </g>
  <defs>
    <clipPath id="a">
      <path fill="#fff" d="M0 0h24v24H0z"/>
    </clipPath>
  </defs>
</svg>
